src/com.simonedenadai.motu-avb.sdPlugin/images/icons/pluginIcon.svg

<svg width="288" height="288" viewBox="0 0 288 288" fill="none" xmlns="http://www.w3.org/2000/svg">
<g clip-path="url(#clip0_1_53)">
<rect width="288" height="288" fill="white"/>
<rect width="288" height="288" fill="#2774D3"/>
<path d="M240.345 104.266V90.2172H177.058L145.345 165.096L110.386 90.2172H48.1645V103.57H68.2404V183.132H47.6545V197.783H106.955V183.132H87.0644V107.882L129.581 197.783H147.663L187.444 109.273V183.132H170.428V197.783H239.789V183.874H219.203V104.266H240.345Z" fill="white"/>
</g>
<defs>
<clipPath id="clip0_1_53">
<rect width="288" height="288" fill="white"/>
</clipPath>
</defs>
</svg>

<svg xmlns="http://www.w3.org/2000/svg" width="288" height="288" fill="none"><g clip-path="url(#a)"><path fill="#fff" d="M0 0h288v288H0z"/><path fill="#2774D3" d="M0 0h288v288H0z"/><path fill="#fff" d="M240.345 104.266V90.217h-63.287l-31.713 74.879-34.959-74.879H48.165v13.353H68.24v79.562H47.655v14.651h59.3v-14.651h-19.89v-75.25l42.516 89.901h18.082l39.781-88.51v73.859h-17.016v14.651h69.361v-13.909h-20.586v-79.608h21.142Z"/></g><defs><clipPath id="a"><path fill="#fff" d="M0 0h288v288H0z"/></clipPath></defs></svg>
